T: Paddy Sean Nancy's
M: 4/4
L: 1/8
K: Gmaj
|: DGBd d2 Bd | dB B2 cA A2 | DGBc dgec | dBAc BG G2 :| |: gfgd e2 e2 | dB B2 cA A2 |[1 gfgd e/f/g dB | dBAc BG G2 ||: E | D3 A B2 Ac | BG ~G2 DEGE | D2 Ac BABc |dBAG EGG :||: A | Bd ~d2 edgd | B ~d2 B AGEG | Bd ~d2 efge | dBcA BGG :|
